svg/dribbble-square.svg

<svg xmlns="http://www.w3.org/2000/svg" viewBox="0 0 64 64" enable-background="new 0 0 64 64"><style type="text/css">.st0{fill:#343434;}</style><g id="dribbble-square"><path id="Combined-Shape" class="st0" d="M0 4c0-2.2 1.8-4 4-4h56c2.2 0 4 1.8 4 4v56c0 2.2-1.8 4-4 4h-56c-2.2 0-4-1.8-4-4v-56zm32 9c-10.5 0-19 8.5-19 19s8.5 19 19 19 19-8.5 19-19-8.5-19-19-19z"/><path id="Fill-4" class="st0" d="M48.1 31.8c-2.2-.7-4.5-1-6.8-1-1.4 0-2.8.1-4.2.3-.5-1-.9-2.1-1.4-3 6.5-2.8 8.8-6.2 8.8-6.2 2.2 2.7 3.5 6.2 3.6 9.9"/><path id="Fill-5" class="st0" d="M32 15.9c4.1 0 7.8 1.5 10.6 4.1-2.2 2.5-5.2 4.3-8.3 5.5-3.1-5.7-6-9.1-6-9.1 1.1-.3 2.4-.5 3.7-.5"/><path id="Fill-6" class="st0" d="M25.1 17.5s2.8 3.6 5.8 9.1c-7.3 2.1-14.6 2-14.6 2 1.1-4.9 4.4-8.9 8.8-11.1"/><path id="Fill-7" class="st0" d="M15.9 32v-.4c6.9 0 12.3-.9 16.4-2.2.4.9.9 1.8 1.2 2.6-5.7 1.8-10.5 5.7-13.5 10.7-2.5-2.8-4.1-6.6-4.1-10.7"/><path id="Fill-8" class="st0" d="M32 48c-3.7 0-7-1.2-9.7-3.3 2.7-4.8 7.1-8.4 12.4-10 1.5 3.7 2.8 7.9 3.4 12.1-1.8.8-3.9 1.2-6.1 1.2"/><path id="Fill-9" class="st0" d="M40.9 45.3c-.5-4.1-1.6-7.9-2.8-11.4 1-.1 2-.2 3.1-.2 2.3 0 4.5.3 6.6 1-.8 4.4-3.4 8.2-6.9 10.6"/></g></svg>

<?xml version="1.0" encoding="utf-8"?>
<!-- Generator: Adobe Illustrator 21.0.0, SVG Export Plug-In . SVG Version: 6.00 Build 0)  -->
<svg version="1.1" id="Layer_1" xmlns="http://www.w3.org/2000/svg" xmlns:xlink="http://www.w3.org/1999/xlink" x="0px" y="0px"
	 viewBox="0 0 64 64" style="enable-background:new 0 0 64 64;" xml:space="preserve">
<style type="text/css">
	.st0{fill:#343434;}
</style>
<g id="Page-1">
	<g id="Social-icons-_x28_65_x29_" transform="translate(-960.000000, -960.000000)">
		<g id="dribbble-square" transform="translate(960.000000, 960.000000)">
			<path id="Combined-Shape" class="st0" d="M0,4c0-2.2,1.8-4,4-4h56c2.2,0,4,1.8,4,4v56c0,2.2-1.8,4-4,4H4c-2.2,0-4-1.8-4-4V4z
				 M32,13c-10.5,0-19,8.5-19,19s8.5,19,19,19s19-8.5,19-19S42.5,13,32,13z"/>
			<path id="Fill-4" class="st0" d="M48.1,31.8c-2.2-0.7-4.5-1-6.8-1c-1.4,0-2.8,0.1-4.2,0.3c-0.5-1-0.9-2.1-1.4-3
				c6.5-2.8,8.8-6.2,8.8-6.2C46.7,24.6,48,28.1,48.1,31.8"/>
			<path id="Fill-5" class="st0" d="M32,15.9c4.1,0,7.8,1.5,10.6,4.1c-2.2,2.5-5.2,4.3-8.3,5.5c-3.1-5.7-6-9.1-6-9.1
				C29.4,16.1,30.7,15.9,32,15.9"/>
			<path id="Fill-6" class="st0" d="M25.1,17.5c0,0,2.8,3.6,5.8,9.1c-7.3,2.1-14.6,2-14.6,2C17.4,23.7,20.7,19.7,25.1,17.5"/>
			<path id="Fill-7" class="st0" d="M15.9,32v-0.4c6.9,0,12.3-0.9,16.4-2.2c0.4,0.9,0.9,1.8,1.2,2.6c-5.7,1.8-10.5,5.7-13.5,10.7
				C17.5,39.9,15.9,36.1,15.9,32"/>
			<path id="Fill-8" class="st0" d="M32,48c-3.7,0-7-1.2-9.7-3.3c2.7-4.8,7.1-8.4,12.4-10c1.5,3.7,2.8,7.9,3.4,12.1
				C36.3,47.6,34.2,48,32,48"/>
			<path id="Fill-9" class="st0" d="M40.9,45.3c-0.5-4.1-1.6-7.9-2.8-11.4c1-0.1,2-0.2,3.1-0.2c2.3,0,4.5,0.3,6.6,1
				C47,39.1,44.4,42.9,40.9,45.3"/>
		</g>
	</g>
</g>
</svg>
